X:2209
T:Neidpath Castle
P:Dr. and Mrs. Green
C:K. Macaulay-Jones
R:Strathspey (3x32)
B:RSCDS 22-9
Z:Anselm Lingnau <anselm@strathspey.org>
M:4/4
L:1/8
K:C
G|"C"[c2G2E2] e>c GEc>G|"Dm"A>GFE "G"DCB,G,|\
           "C"[c2G2E2] e>c GEc>G|"F"((3AGF) ((3fed) "G"((3Bcd) GA/B/|
  "C"[c2G2E2] e>c GEcG|"Dm"F>EDC "G"B,A G<F|\
           "C"E>GcB "Dm"A<Ff>d|"G"((3Bcd) G>f "C"e<c c||
e|"Am"[a2e2c2] "E7"e>c fdB^G|"Am"e2 cA "E7"d/c/B/A/ [B3/2^G3/2E3/2]e/|\
           "Am"[a3/2e3/2c3/2]b/ ae "Dm"fd A<f|\
           "Am"e/d/c [cA][BG] "Dm"[A2F2] "G7"[G2F2B,2]|
"C"[c2G2E2] e>c GE c<G|"Dm"A>Bcd "G"((3Bcd) ((3def)|\
           "C"e>e g>e "Dm"a<fdc|"G"((3Bcd) G>B "C"c<C C|]
